packages/gatsby-theme-docs/color-presets/merchant-center-developer-docs/hero-background.svg

<?xml version="1.0" encoding="UTF-8"?>
<svg width="1700px" height="200px" viewBox="0 0 1700 200" version="1.1" xmlns="http://www.w3.org/2000/svg" xmlns:xlink="http://www.w3.org/1999/xlink">
    <title>Blue</title>
    <defs>
        <linearGradient x1="0%" y1="50.6920415%" x2="100%" y2="49.4592344%" id="linearGradient-1">
            <stop stop-color="#044E7C" offset="0%"></stop>
            <stop stop-color="#066DAD" offset="100%"></stop>
        </linearGradient>
        <rect id="path-2" x="0" y="0" width="1700" height="200"></rect>
        <polygon id="path-4" points="0 0 32 0 32 36 0 36"></polygon>
        <polygon id="path-6" points="0 0 31 0 31 35 0 35"></polygon>
        <polygon id="path-8" points="0 0 130 0 130 148 0 148"></polygon>
        <polygon id="path-10" points="0 0 192 0 192 219 0 219"></polygon>
        <polygon id="path-12" points="0 0 148 0 148 169 0 169"></polygon>
        <polygon id="path-14" points="0 0 148 0 148 169 0 169"></polygon>
        <polygon id="path-16" points="0 0 192 0 192 219 0 219"></polygon>
        <polygon id="path-18" points="0 0 148 0 148 169 0 169"></polygon>
    </defs>
    <g id="Page-1" stroke="none" stroke-width="1" fill="none" fill-rule="evenodd">
        <g id="Color-Scheme----Banner-/-All" transform="translate(-848.000000, -473.000000)">
            <g id="Blue" transform="translate(848.000000, 473.000000)">
                <mask id="mask-3" fill="white">
                    <use xlink:href="#path-2"></use>
                </mask>
                <use id="bg-App-kit" fill="url(#linearGradient-1)" xlink:href="#path-2"></use>
                <g id="bg-pattern-2" mask="url(#mask-3)">
                    <g transform="translate(-78.000000, -225.000000)">
                        <g id="hex-sm" opacity="0.142531622" style="mix-blend-mode: overlay;" transform="translate(766.000000, 333.000000)">
                            <mask id="mask-5" fill="white">
                                <use xlink:href="#path-4"></use>
                            </mask>
                            <g id="Clip-2"></g>
                            <path d="M32,28.2125083 C32,28.64568 31.7652176,29.0460221 31.3841011,29.262567 L16.6158158,35.8375913 C16.2347824,36.0541362 15.7653007,36.0541362 15.3841842,35.8375913 L0.615815837,29.262567 C0.234782383,29.0460221 0,28.64568 0,28.2125083 L0,7.78753263 C0,7.35436092 0.234782383,6.95410075 0.615815837,6.73739209 L15.3841842,0.162531497 C15.7653007,-0.0541771657 16.2347824,-0.0541771657 16.6158158,0.162531497 L31.3841011,6.73739209 C31.7652176,6.95410075 32,7.35436092 32,7.78753263 L32,28.2125083 Z" id="Fill-1" fill="#FFFFFF" mask="url(#mask-5)"></path>
                        </g>
                        <g id="hex-sm" opacity="0.142531622" style="mix-blend-mode: overlay;" transform="translate(1295.000000, 351.000000)">
                            <mask id="mask-7" fill="white">
                                <use xlink:href="#path-6"></use>
                            </mask>
                            <g id="Clip-2"></g>
                            <path d="M31,27.4288275 C31,27.8499667 30.7725546,28.2391881 30.403348,28.4497179 L16.0965716,34.8421027 C15.7274454,35.0526324 15.272635,35.0526324 14.9034284,34.8421027 L0.596571592,28.4497179 C0.227445434,28.2391881 0,27.8499667 0,27.4288275 L0,7.57121228 C0,7.15007311 0.227445434,6.76093129 0.596571592,6.55024231 L14.9034284,0.158016733 C15.272635,-0.0526722444 15.7274454,-0.0526722444 16.0965716,0.158016733 L30.403348,6.55024231 C30.7725546,6.76093129 31,7.15007311 31,7.57121228 L31,27.4288275 Z" id="Fill-1" fill="#FFFFFF" mask="url(#mask-7)"></path>
                        </g>
                        <g id="hex2" opacity="0.078171503" style="mix-blend-mode: overlay;" transform="translate(1008.000000, 186.000000)">
                            <mask id="mask-9" fill="white">
                                <use xlink:href="#path-8"></use>
                            </mask>
                            <g id="Clip-2"></g>
                            <path d="M130,115.984756 C130,117.765573 129.046197,119.411424 127.497911,120.301664 L67.5017518,147.33232 C65.9538034,148.22256 64.046534,148.22256 62.4982482,147.33232 L2.50175184,120.301664 C0.953803431,119.411424 0,117.765573 0,115.984756 L0,32.0154119 C0,30.2345949 0.953803431,28.5890809 2.50175184,27.6981675 L62.4982482,0.668185043 C64.046534,-0.222728348 65.9538034,-0.222728348 67.5017518,0.668185043 L127.497911,27.6981675 C129.046197,28.5890809 130,30.2345949 130,32.0154119 L130,115.984756 Z" id="Fill-1" fill="#FFFFFF" mask="url(#mask-9)"></path>
                        </g>
                        <g id="hex-3" opacity="0.0730794271" transform="translate(775.000000, 240.000000)">
                            <mask id="mask-11" fill="white">
                                <use xlink:href="#path-10"></use>
                            </mask>
                            <g id="Clip-2"></g>
                            <path d="M192,171.626092 C192,174.26122 190.591306,176.696634 188.304607,178.013949 L99.694895,218.012014 C97.4086943,219.329329 94.591804,219.329329 92.305105,218.012014 L3.69489502,178.013949 C1.4086943,176.696634 0,174.26122 0,171.626092 L0,47.3741569 C0,44.7390289 1.4086943,42.3041129 3.69489502,40.9858019 L92.305105,0.988733274 C94.591804,-0.329577758 97.4086943,-0.329577758 99.694895,0.988733274 L188.304607,40.9858019 C190.591306,42.3041129 192,44.7390289 192,47.3741569 L192,171.626092 Z" id="Fill-1" fill="#FFFFFF" mask="url(#mask-11)"></path>
                        </g>
                        <g id="hexagons" transform="translate(926.000000, 238.000000)" opacity="0.137439546">
                            <g id="hex-3-copy-2">
                                <mask id="mask-13" fill="white">
                                    <use xlink:href="#path-12"></use>
                                </mask>
                                <g id="Clip-2"></g>
                                <path d="M148,132.442053 C148,134.475553 146.914131,136.354937 145.151468,137.371495 L76.8481482,168.237581 C75.0858685,169.25414 72.9145156,169.25414 71.1518518,168.237581 L2.84814824,137.371495 C1.08586852,136.354937 0,134.475553 0,132.442053 L0,36.5581393 C0,34.5246388 1.08586852,32.6456397 2.84814824,31.6283129 L71.1518518,0.762995083 C72.9145156,-0.254331694 75.0858685,-0.254331694 76.8481482,0.762995083 L145.151468,31.6283129 C146.914131,32.6456397 148,34.5246388 148,36.5581393 L148,132.442053 Z" id="Fill-1" fill="#FFFFFF" mask="url(#mask-13)"></path>
                            </g>
                        </g>
                        <g id="hexagons-copy" transform="translate(1218.000000, 74.000000)"></g>
                        <g id="hex-3-copy" opacity="0.0730794271" transform="translate(1392.000000, 280.000000)">
                            <mask id="mask-15" fill="white">
                                <use xlink:href="#path-14"></use>
                            </mask>
                            <g id="Clip-2"></g>
                            <path d="M148,132.442053 C148,134.475553 146.914131,136.354937 145.151468,137.371495 L76.8481482,168.237581 C75.0858685,169.25414 72.9145156,169.25414 71.1518518,168.237581 L2.84814824,137.371495 C1.08586852,136.354937 0,134.475553 0,132.442053 L0,36.5581393 C0,34.5246388 1.08586852,32.6456397 2.84814824,31.6283129 L71.1518518,0.762995083 C72.9145156,-0.254331694 75.0858685,-0.254331694 76.8481482,0.762995083 L145.151468,31.6283129 C146.914131,32.6456397 148,34.5246388 148,36.5581393 L148,132.442053 Z" id="Fill-1" fill="#FFFFFF" mask="url(#mask-15)"></path>
                        </g>
                        <g id="hex-3-copy-3" opacity="0.0730794271" transform="translate(1218.000000, 74.000000)">
                            <mask id="mask-17" fill="white">
                                <use xlink:href="#path-16"></use>
                            </mask>
                            <g id="Clip-2"></g>
                            <path d="M192,171.626092 C192,174.26122 190.591306,176.696634 188.304607,178.013949 L99.694895,218.012014 C97.4086943,219.329329 94.591804,219.329329 92.305105,218.012014 L3.69489502,178.013949 C1.4086943,176.696634 0,174.26122 0,171.626092 L0,47.3741569 C0,44.7390289 1.4086943,42.3041129 3.69489502,40.9858019 L92.305105,0.988733274 C94.591804,-0.329577758 97.4086943,-0.329577758 99.694895,0.988733274 L188.304607,40.9858019 C190.591306,42.3041129 192,44.7390289 192,47.3741569 L192,171.626092 Z" id="Fill-1" fill="#FFFFFF" mask="url(#mask-17)"></path>
                        </g>
                        <g id="hex-3-copy-2" opacity="0.0730794271" transform="translate(1532.000000, 204.000000)">
                            <mask id="mask-19" fill="white">
                                <use xlink:href="#path-18"></use>
                            </mask>
                            <g id="Clip-2"></g>
                            <path d="M148,132.442053 C148,134.475553 146.914131,136.354937 145.151468,137.371495 L76.8481482,168.237581 C75.0858685,169.25414 72.9145156,169.25414 71.1518518,168.237581 L2.84814824,137.371495 C1.08586852,136.354937 0,134.475553 0,132.442053 L0,36.5581393 C0,34.5246388 1.08586852,32.6456397 2.84814824,31.6283129 L71.1518518,0.762995083 C72.9145156,-0.254331694 75.0858685,-0.254331694 76.8481482,0.762995083 L145.151468,31.6283129 C146.914131,32.6456397 148,34.5246388 148,36.5581393 L148,132.442053 Z" id="Fill-1" fill="#FFFFFF" mask="url(#mask-19)"></path>
                        </g>
                    </g>
                </g>
            </g>
        </g>
    </g>
</svg>

<svg viewBox="0 0 1700 200" width="1700px" height="200px" xmlns="http://www.w3.org/2000/svg" xmlns:xlink="http://www.w3.org/1999/xlink">
  <defs>
    <path id="a" d="M0 0h1700v200H0z"/>
    <path id="d" d="M0 0h32v36H0z"/>
    <path id="f" d="M0 0h31v35H0z"/>
    <path id="h" d="M0 0h130v148H0z"/>
    <path id="j" d="M0 0h192v219H0z"/>
    <path id="l" d="M0 0h148v169H0z"/>
    <path id="n" d="M0 0h148v169H0z"/>
    <path id="p" d="M0 0h192v219H0z"/>
    <path id="r" d="M0 0h148v169H0z"/>
    <linearGradient x1="0%" y1="50.692%" x2="100%" y2="49.459%" id="b">
      <stop stop-color="#044E7C" offset="0%"/>
      <stop stop-color="#066DAD" offset="100%"/>
    </linearGradient>
  </defs>
  <g fill="none" fill-rule="evenodd">
    <mask id="c" fill="#fff">
      <use xlink:href="#a"/>
    </mask>
    <use fill="url(#b)" xlink:href="#a"/>
    <g mask="url(#c)">
      <g opacity=".143" style="mix-blend-mode:overlay" transform="translate(688 108)">
        <mask id="e" fill="#fff">
          <use xlink:href="#d"/>
        </mask>
        <path d="M32 28.213c0 .433-.235.833-.616 1.05l-14.768 6.575c-.381.216-.85.216-1.232 0L.616 29.263A1.21 1.21 0 010 28.213V7.788c0-.434.235-.834.616-1.05L15.384.162c.381-.217.85-.217 1.232 0l14.768 6.574c.381.217.616.617.616 1.05v20.426z" fill="#FFF" mask="url(#e)"/>
      </g>
      <g opacity=".143" style="mix-blend-mode:overlay" transform="translate(1217 126)">
        <mask id="g" fill="#fff">
          <use xlink:href="#f"/>
        </mask>
        <path d="M31 27.429c0 .421-.227.81-.597 1.02l-14.306 6.393c-.37.21-.824.21-1.194 0L.597 28.45c-.37-.21-.597-.6-.597-1.021V7.57c0-.42.227-.81.597-1.02L14.903.157c.37-.21.824-.21 1.194 0L30.403 6.55c.37.21.597.6.597 1.021V27.43z" fill="#FFF" mask="url(#g)"/>
      </g>
      <g opacity=".078" style="mix-blend-mode:overlay" transform="translate(930 -39)">
        <mask id="i" fill="#fff">
          <use xlink:href="#h"/>
        </mask>
        <path d="M130 115.985c0 1.78-.954 3.426-2.502 4.317l-59.996 27.03a5.02 5.02 0 01-5.004 0l-59.996-27.03A4.981 4.981 0 010 115.985v-83.97c0-1.78.954-3.426 2.502-4.317L62.498.668a5.017 5.017 0 015.004 0l59.996 27.03A4.982 4.982 0 01130 32.015v83.97z" fill="#FFF" mask="url(#i)"/>
      </g>
      <g opacity=".073" transform="translate(697 15)">
        <mask id="k" fill="#fff">
          <use xlink:href="#j"/>
        </mask>
        <path d="M192 171.626a7.373 7.373 0 01-3.695 6.388l-88.61 39.998a7.403 7.403 0 01-7.39 0l-88.61-39.998A7.374 7.374 0 010 171.626V47.374a7.376 7.376 0 013.695-6.388L92.305.989a7.398 7.398 0 017.39 0l88.61 39.997A7.375 7.375 0 01192 47.374v124.252z" fill="#FFF" mask="url(#k)"/>
      </g>
      <g transform="translate(848 13)" opacity=".137">
        <mask id="m" fill="#fff">
          <use xlink:href="#l"/>
        </mask>
        <path d="M148 132.442a5.69 5.69 0 01-2.849 4.93l-68.303 30.866a5.701 5.701 0 01-5.696 0L2.848 137.37A5.691 5.691 0 010 132.442V36.558a5.693 5.693 0 012.848-4.93L71.152.763a5.697 5.697 0 015.696 0l68.303 30.865a5.693 5.693 0 012.849 4.93v95.884z" fill="#FFF" mask="url(#m)"/>
      </g>
      <g opacity=".073" transform="translate(1314 55)">
        <mask id="o" fill="#fff">
          <use xlink:href="#n"/>
        </mask>
        <path d="M148 132.442a5.69 5.69 0 01-2.849 4.93l-68.303 30.866a5.701 5.701 0 01-5.696 0L2.848 137.37A5.691 5.691 0 010 132.442V36.558a5.693 5.693 0 012.848-4.93L71.152.763a5.697 5.697 0 015.696 0l68.303 30.865a5.693 5.693 0 012.849 4.93v95.884z" fill="#FFF" mask="url(#o)"/>
      </g>
      <g opacity=".073" transform="translate(1140 -151)">
        <mask id="q" fill="#fff">
          <use xlink:href="#p"/>
        </mask>
        <path d="M192 171.626a7.373 7.373 0 01-3.695 6.388l-88.61 39.998a7.403 7.403 0 01-7.39 0l-88.61-39.998A7.374 7.374 0 010 171.626V47.374a7.376 7.376 0 013.695-6.388L92.305.989a7.398 7.398 0 017.39 0l88.61 39.997A7.375 7.375 0 01192 47.374v124.252z" fill="#FFF" mask="url(#q)"/>
      </g>
      <g opacity=".073" transform="translate(1454 -21)">
        <mask id="s" fill="#fff">
          <use xlink:href="#r"/>
        </mask>
        <path d="M148 132.442a5.69 5.69 0 01-2.849 4.93l-68.303 30.866a5.701 5.701 0 01-5.696 0L2.848 137.37A5.691 5.691 0 010 132.442V36.558a5.693 5.693 0 012.848-4.93L71.152.763a5.697 5.697 0 015.696 0l68.303 30.865a5.693 5.693 0 012.849 4.93v95.884z" fill="#FFF" mask="url(#s)"/>
      </g>
    </g>
  </g>
</svg>
